packages/kaspersky-hexa-ui-icons/src/iconsSVGs/24/GmailColor.svg

<svg width="24" height="24" viewBox="0 0 24 24" fill="none" xmlns="http://www.w3.org/2000/svg">
<path d="M3.36364 19.0038H6.54545V11.2765L2 7.86743V17.6402C2 18.3947 2.61136 19.0038 3.36364 19.0038Z" fill="#4285F4"/>
<path d="M17.4546 19.0038H20.6364C21.391 19.0038 22 18.3924 22 17.6402V7.86743L17.4546 11.2765" fill="#34A853"/>
<path d="M17.4546 5.3675V11.2765L22 7.86743V6.04932C22 4.36296 20.075 3.4016 18.7273 4.41296" fill="#FBBC04"/>
<path d="M6.54545 11.2765L6.54541 5.36743L12 9.45834L17.4546 5.3675V11.2765L12 15.3674" fill="#EA4335"/>
<path d="M2 6.04932V7.86743L6.54545 11.2765L6.54541 5.36743L5.27273 4.41296C3.92273 3.4016 2 4.36296 2 6.04932Z" fill="#C5221F"/>
</svg>

<svg xmlns="http://www.w3.org/2000/svg" width="24" height="24" fill="none" viewBox="0 0 24 24"><path fill="#4285f4" d="M3.3636 19.0038h3.1819v-7.7273L2 7.8675v9.7727c0 .7545.6114 1.3636 1.3636 1.3636"/><path fill="#34a853" d="M17.4546 19.0038h3.1818c.7546 0 1.3636-.6114 1.3636-1.3636V7.8674l-4.5454 3.4091"/><path fill="#fbbc04" d="M17.4546 5.3675v5.909L22 7.8675V6.0492c0-1.6863-1.925-2.6477-3.2727-1.6363"/><path fill="#ea4335" d="M6.5455 11.2765v-5.909L12 9.4582l5.4546-4.0908v5.909L12 15.3674"/><path fill="#c5221f" d="M2 6.0493v1.8181l4.5455 3.4091v-5.909L5.2726 4.413C3.9227 3.4016 2 4.363 2 6.0493"/></svg>
